themes/sector_starter/images/device-set.svg

<svg xmlns="http://www.w3.org/2000/svg" viewBox="0 0 696.92 470.1"><title>Asset 10</title><path d="M431.2 439.86a8.88 8.88 0 0 1-8.88-8.88v-14.23h-325.32c0 29.47 97.6 53.36 218 53.36 53.42 0 102.35-4.71 140.26-12.51 13.74 7.4 34.74 12.09 58.17 12.09 39.08 0 71.2-13.08 74.93-29.83z" fill="#eaecef"/><rect x="422.33" y="188.77" width="179.41" height="251.09" rx="8.88" ry="8.88" stroke="#caced6" stroke-miterlimit="10" stroke-width="8" fill="none"/><path stroke="#caced6" stroke-miterlimit="10" stroke-width="8" fill="none" d="M422.33 400.63h179.41"/><circle cx="513.11" cy="420.9" r="5.88" stroke="#caced6" stroke-miterlimit="10" stroke-width="5" fill="none"/><path stroke="#caced6" stroke-miterlimit="10" stroke-width="8" fill="none" d="M423.39 212.31h178.35M455.67 262.3h114.79M455.67 292.5h114.79M455.67 322.71h114.79M455.67 352.91h62.78M215.35 136.35h178.45M215.35 165.82h178.45M215.35 195.29h178.45M215.35 224.77h93.03"/><path d="M383.36 349.3h-250.06c-43.39 0-78.56-34.63-78.56-77.35v-190.6c0-42.72 35.17-77.35 78.56-77.35h345.7c43.39 0 78.56 34.63 78.56 77.35v68.8M58.67 271.95h324.69M4 417.89h200.87M625.91 417.89h67.01M396.3 417.68h10.22M348.32 349.33l31.06 59.83a5.86 5.86 0 0 1-5.06 9h-137.63a5.86 5.86 0 0 1-5.06-9l29.41-59M155.35 272v-216.21a7.57 7.57 0 0 1 7.57-7.57h290.08a7.57 7.57 0 0 1 7.57 7.57v94.36" stroke="#caced6" stroke-linecap="round" stroke-miterlimit="10" stroke-width="8" fill="none"/><path stroke="#caced6" stroke-miterlimit="10" stroke-width="8" fill="none" d="M155.35 90.6h305.23"/><circle cx="211.56" cy="69.41" r="5.3" stroke="#caced6" stroke-miterlimit="10" stroke-width="5" fill="none"/><circle cx="183.89" cy="69.41" r="5.3" stroke="#caced6" stroke-miterlimit="10" stroke-width="5" fill="none"/><circle cx="239.81" cy="69.41" r="5.3" stroke="#caced6" stroke-miterlimit="10" stroke-width="5" fill="none"/></svg>

<svg xmlns="http://www.w3.org/2000/svg" viewBox="0 0 696.92 470.1"><path fill="#eaecef" d="M431.2 439.86a8.88 8.88 0 0 1-8.88-8.88v-14.23H97c0 29.47 97.6 53.36 218 53.36 53.42 0 102.35-4.71 140.26-12.51C469 465 490 469.69 513.43 469.69c39.08 0 71.2-13.08 74.93-29.83z"/><rect width="179.41" height="251.09" x="422.33" y="188.77" fill="none" stroke="#caced6" stroke-miterlimit="10" stroke-width="8" rx="8.88" ry="8.88"/><path fill="none" stroke="#caced6" stroke-miterlimit="10" stroke-width="8" d="M422.33 400.63h179.41"/><circle cx="513.11" cy="420.9" r="5.88" fill="none" stroke="#caced6" stroke-miterlimit="10" stroke-width="5"/><path fill="none" stroke="#caced6" stroke-miterlimit="10" stroke-width="8" d="M423.39 212.31h178.35M455.67 262.3h114.79m-114.79 30.2h114.79m-114.79 30.21h114.79m-114.79 30.2h62.78m-303.1-216.56H393.8m-178.45 29.47H393.8m-178.45 29.47H393.8m-178.45 29.48h93.03"/><path fill="none" stroke="#caced6" stroke-linecap="round" stroke-miterlimit="10" stroke-width="8" d="M383.36 349.3H133.3c-43.39 0-78.56-34.63-78.56-77.35V81.35C54.74 38.63 89.91 4 133.3 4H479c43.39 0 78.56 34.63 78.56 77.35v68.8M58.67 271.95h324.69M4 417.89h200.87m421.04 0h67.01m-296.62-.21h10.22m-58.2-68.35l31.06 59.83a5.86 5.86 0 0 1-5.06 9H236.69a5.86 5.86 0 0 1-5.06-9l29.41-59M155.35 272V55.79a7.57 7.57 0 0 1 7.57-7.57H453a7.57 7.57 0 0 1 7.57 7.57v94.36"/><path fill="none" stroke="#caced6" stroke-miterlimit="10" stroke-width="8" d="M155.35 90.6h305.23"/><circle cx="211.56" cy="69.41" r="5.3" fill="none" stroke="#caced6" stroke-miterlimit="10" stroke-width="5"/><circle cx="183.89" cy="69.41" r="5.3" fill="none" stroke="#caced6" stroke-miterlimit="10" stroke-width="5"/><circle cx="239.81" cy="69.41" r="5.3" fill="none" stroke="#caced6" stroke-miterlimit="10" stroke-width="5"/></svg>
